X:1
T:There is a jewel - Wilbye
T:#
%%score { 1 | 2 } 3 { ( 4 5 ) | 6 }
L:1/8
Q:1/4=120
M:4/4
K:F
V:1 treble nm="Soprano I" snm="S"
V:2 treble 
V:3 treble-8 nm="Tenor" snm="T"
V:4 treble nm="Midi_7"
V:5 treble 
V:6 bass 
V:1
"^There is a jewel""^John Wilbye\n (1574-1638)"!mf!"^A reply to \"I live, and yet methinks I do not breathe\"" A4 A2 A2 | %1
w: There is a|
 d2 A4 z2 | F4 F2 F2 | (FEFG ABAB | c2) c2 c2 A2 |[M:4/4] G2 A2 G2 F2 | E8- | E4 c4 | F2 (GA) B4- | %9
w: jew- el,|there is a|jew\- * * * * * * *|* el which no|In- dian mines Can|buy,|* no|chy- mic * art|
 B4 A4 | G4 G4 | A2 c2 c2 B2 | A2 G2 B2 A2 | (G2 F2) G4 | A4 z4 | z8 | z2!p! F2 F3 _E | %17
w: * can|coun- ter-|feit: It makes men|rich in great- est|po\- * ver-|ty,||it makes men|
 D2 A2 c2 c2 | B2 A2 c2 B2 | A2 (B3 A/G/ A2) | B2 z2 z4 | z2!f! f2 f2 _e2 | d2 f2 _e2 d2 | %23
w: rich, it makes men|rich in great- est|po- ver\- * * *|ty,|it makes men|rich in great- est|
 (c2 B2) A4 | =B4 d4 | c2 G2 A3 A | G8- | G2 c2 c2 B2 | A2 G2 B2 A2 | G2 F2 G4 | z2 A2 A2 G2 | %31
w: po\- * ver-|ty, in|great- est po- ver-|ty;|* Makes wa- ter|wine; turns wood- en|cups to gold;|makes wa- ter|
 F2 B2 B2 A2 | G2 B2 A2 G2 | ^F2 (G4 F2) | G4 z4 | z2!p! ^F2 F2 A2 | (GABc B2) G2 | z2 A2 A2 c2 | %38
w: wine, makes wa- ter|wine; turns wood- en|cups to *|gold;|The home- ly|whi\- * * * * stle,|the home- ly|
 (Bcd_e d2) B2 | c2 d2 c2 c2 | B2!f! d2 B2 d2 | (cBAB c2 A2) | z2 B2 G2 B2 | (AGFG A2) dd | %44
w: whi\- * * * * stle|to sweet mu- sic's|strain, the home- ly|whi\- * * * * stle,|the home- ly|whi\- * * * * stle, the|
 c3 d B3 c | A2 G2 A2 A2 | G2!p! D2 G2 F2 | (EDEF) E2 A2 | G3 A F3 G | E2 D2 E2 E2 | ^F8 | %51
w: home- ly whi- stle|to sweet mu- sic's|strain, the home- ly|whi\- * * * stle, the|home- ly whi- stle|to sweet mu- sic's|strain.|
 z2!mf! A3 A A2 | B4 A2 G2- | G2 F2 G2 G2 | A2!p! A3 G F2 | E2 D2 ^C2 A2 | A4 G4 | A8 | %58
w: Sel- dom it|comes; to few|* from Hea- ven|sent, sel- dom it|comes; to few from|Hea- ven|sent,|
!f! A2 AG F4 | G2 GF E4 | F2 FE D2 D2 | ^C2 D2 D2 C2 | D4 z4 | z2!p! d2 c2 A2 | B2 G2 A3 A | %65
w: sel- dom it comes,|sel- dom it comes,|sel- dom it comes; to|few from Hea- ven|sent,|That much in|lit- tle, all in|
 G4 z4 | z2 c2 B2 G2 | A2 F2 G3 G | F4 z4 | z2 A2 G2 E2 | F2 D2 E3 E | D4 z4 | z2 D2 E2 ^F2 | %73
w: nought,|that much in|lit- tle, all in|nought,|that much in|lit- tle, all in|nought,|that much in|
 G6 ^F2 | E4 D4 | E4 E4 | ^F16 |] %77
w: lit- tle,|all in|nought con-|tent.|
V:2
!mf! F4 F2 F2 | F2 F4 z2 | A4 A2 A2 | (AGFE FGAF | G2) G2 G2 F2 |[M:4/4] E3 F G2 (AB) | c8- | %7
w: There is a|jew- el,|there is a|jew\- * * * * * * *|* el which no|In- dian mines Can *|buy,|
 c4 (G2 A2) | B2 A2 G2 F2 | G4 (F4- | F4 E4) | F2 C2 C2 (DE) | F2 E2 D4 | E2 F4 E2 | %14
w: * no *|chy- mic art can|coun- ter\-||feit: It makes men *|rich in great-|est po- ver-|
 F2!p! F2 F2 _E2 | D2 C2 _E2 D2 | (C2 B,2) C4 | D4 z4 | z8 | z2 f2 f2 _e2 | %20
w: ty, it makes men|rich in great- est|po\- * ver-|ty,||it makes men|
 d2 c2"^* E in original" _e2 d2 | c2 B2 c2!f! c2 | B2 A2 G2 B2 | A2 G2 G2 ^F2 | G2 G2 G2 =F2 | %25
w: rich in great- est|po- ver- ty, it|makes men rich in|great- est po- ver-|ty; Makes wa- ter|
 E2 D2 F2 E2 | D2 C2 D4 | E4 E2 D2 | C2 C2 D2 F2 | (E2 F4) E2 | F2 F2 F2 E2 | D2 d2 d2 c2 | %32
w: wine; turns wood- en|cups to gold;|makes wa- ter|wine; turns wood- en|cups * to|gold; makes wa- ter|wine, makes wa- ter|
 B2 B2 c4- | c2 B2 A2 A2 | =B2!p! G2 G2 G2 | (^FGA_B A2) F2 | z2 G2 G2 B2 | (ABcd c2) A2 | %38
w: wine; turns wood\-|* en cups to|gold; The home- ly|whi\- * * * * stle,|the home- ly|whi\- * * * * stle,|
 z2 B2 B2 d2 | c2 B2 B2 A2 | B4 z4 | z2!f! c2 A2 c2 | (BAGA B2) G2 | z2 A2 F2 B2 | A3 B G3 A | %45
w: the whi- stle|to sweet mu- sic's|strain,|the home- ly|whi\- * * * * stle,|the home- ly|whi- stle to sweet|
 (^F2 G4) F2 | G3!p! =F E2 D2 | (^C=B,CD) C2 F2 | E3 F D3 E | ^C2 D2 D2 C2 | D8 | z2!mf! =F3 F F2 | %52
w: mu\- * sic's|strain, the home- ly|whi\- * * * stle, the|home- ly whi- stle|to sweet mu- sic's|strain.|Sel- dom it|
 G4 F2 E2- | E2 F2 F2 E2 | F4 z2!p! A2- | AG F2 E2 E2 | D6 E2 | F2 F2 E4 |!f! F2 FG A4 | E2 EF G4 | %60
w: comes; to few|* from Hea- ven|sent, sel\-|* dom it comes; to|few from|Hea- ven sent,|sel- dom it comes,|sel- dom it comes,|
 D2 DE F2 G2 | A2 F2 E2 E2 | ^F2!p! =F2 G2 A2 | D2 G2 G2 ^F2 | G4 z4 | z2 E2 F2 G2 | C2 F2 F2 E2 | %67
w: sel- dom it comes; to|few from Hea- ven|sent, That much in|lit- tle, all in|nought,|that much in|lit- tle, all in|
 F4 z4 | z2 C2 D2 E2 | A,2 D2 D2 ^C2 | D4 z4 | z2 D2 =C2 C2 | =B,6 A,2 | %73
w: nought,|that much in|lit- tle, all in|nought,|that much in|lit- tle,|
 (=B,2"^* C in original" ^C2 D4) | ^C4 D4- | D4 ^C4 | D16 |] %77
w: all * *|in nought|* con-|tent.|
V:3
!mf! d4 d2 d2 | d4 D4 | d4 d2 d2 | d8 | c4 c2 F2 |[M:4/4][K:treble-8] c3 d e2 f2 | c8 | C8 | %8
w: There is a|jew- el,|there is a|jew-|el which no|In- dian mines Can|buy,|no|
 D4 D4 | E4 F4 | C4 C4 | F4 z4 | z8 | z8 | z2!p! F2 F2 (GA) | B2 A2 G4 | A2 B4 A2 | B2 f2 f2 _e2 | %18
w: chy- mic|art can|coun- ter-|feit:|||it makes men *|rich in great-|est po- ver-|ty, it makes men|
 d2 f2 _e2 d2 | c2 B2 c2 c2 | B2 A2 G2 B2 | F4!f! F4 | G2 D2 _E2 B2 | c2 c2 d2 d2 | %24
w: rich in great- est|po- ver- ty, in|great- est po- ver-|ty, it|makes men rich in|great- est po- ver-|
 G2 G2 G2 (A=B) | c2 =B2 A4 | =B2 c4 B2 | c2 C2 C2 (DE) | F2 E2 G2 F2 | c6 c2 | F2 F2 F2 (GA) | %31
w: ty; Makes wa- ter *|wine; turns wood-|en cups to|gold; makes wa- ter *|wine; turns wood- en|cups to|gold; makes wa- ter *|
 B2 B2 B2 (cd) | _e2 d2 c2"^* E in original" e2 | d6 d2 | G8 |!p! D8 | G8 | F8 | B6 B2 | %39
w: wine, makes wa- ter *|wine; turns wood- en|cups to|gold;|The|home-|ly|whi- stle|
 A2 B2 f2 f2 | B4!f! B4 | F8 | G8 | d6 d2 | d4 d4 | d4 d4 |!p! G8 | A8 | A8 | A8 | D8 | %51
w: to sweet mu\- sic's|strain, the|home-|ly|whi- stle|to sweet|mu- sic's|strain,|sweet|mu-|sic's|strain.|
 z2!mf! d3 d d2 | G4 A2 c2- | c2 F2 c2 c2 | F2!p! f3 e d2 | ^c2 d2 A2 =c2 | B4 B4 | A8 |!f! d8 | %59
w: Sel- dom it|comes; to few|* from Hea- ven|sent, sel- dom it|comes; to few from|Hea- ven|sent,|from|
 c8 | B8 | A8 | z2!p! d2 c2 A2 | B2 G2 A3 A | G2 G4 ^F2 | G2 c2 B2 G2 | A2 F2 G3 G | F2 F4 E2 | %68
w: Hea-|ven|sent.|That much in|lit- tle, all in|nought, all in|nought, that much in|lit- tle, all in|nought, all in|
 F2 A2 G2 E2 | F2 D2 E3 E | D2 D4 ^C2 | D2 D2 E2 ^F2 | G6 ^F2 | E4 D4 | A8 | A8 | D16 |] %77
w: nought, that much in|lit- tle, all in|nought, all in|nought, that much in|lit- tle,|all in|nought|con-|tent.|
V:4
 A4 A2 A2 | d2 A4 z2 | F4 F2 F2 | FEFG ABAB | c2 c2 c2 A2 |[M:4/4] G2 A2 G2 F2 | E8- | E4 c4 | %8
 F2 GA B4- | B4 A4 | [FG]4 G4 | A2 c2 c2 B2 | A2 G2 B2 A2 | G2 F2 G4 | A4 x4 | x8 | x2 F2 F3 _E | %17
 D2 A2 c2 c2 | B2 A2 c2 B2 | A2 B3 A/G/ A2 | B2 x2 x4 | x2 f2 f2 _e2 | d2 f2 _e2 d2 | c2 B2 A4 | %24
 =B4 d4 | c2 G2 A3 A | G8- | G2 c2 c2 B2 | A2 G2 B2 A2 | G2 F2 G4 | x2 A2 A2 G2 | F2 B2 B2 A2 | %32
 G2 B2 A2 G2 | ^F2 G4 F2 | G4 x4 | x2 ^F2 F2 A2 | GABc B2 G2 | x2 A2 A2 c2 | Bcd_e d2 B2 | %39
 c2 d2 [Bc]2 c2 | B2 d2 B2 d2 | cBAB c2 A2 | x2 B2 G2 B2 | AGFG A2 dd | c3 d B3 c | A2 G2 A2 A2 | %46
 G2 D2 G2 F2 | EDEF E2 A2 | G3 A F3 G | E2 D2 [DE]2 E2 | ^F8 | z2 A3 A A2 | B4 A2 G2- | %53
 G2 F2 [FG]2 G2 | A2 A3 G F2 | E2 D2 ^C2 A2 | A4 G4 | A8 | A2 AG F4 | G2 GF E4 | F2 FE D2 D2 | %61
 ^C2 D2 D2 C2 | D4 x4 | x2 d2 c2 A2 | B2 G2 A3 A | G2- G2 x4 | x2 c2 B2 G2 | A2 F2 G3 G | %68
 F2- F2 x4 | z2 A2 G2 E2 | F2 D2 E3 E | D2 D2 x4 | z2 D2 E2 ^F2 | G6 ^F2 | E4 D4 | [DE]4 E4 | %76
 ^F16 |] %77
V:5
 F4 F2 F2 | F2 F4 z2 | A4 A2 A2 | AGFE FGAF | G2 G2 G2 F2 |[M:4/4] E3 F G2 AB | c8- | c4 G2 A2 | %8
 B2 A2 G2 F2 | G4 F4- | F4 E4 | F2 C2 C2 DE | F2 E2 D4 | E2 F4 E2 | F2 F2 F2 _E2 | D2 C2 _E2 D2 | %16
 C2 B,2 C4 | D2- D2 x4 | x8 | x2 f2 f2 _e2 | d2 c2 _e2 d2 | c2 B2 c2 c2 | B2 A2 G2 B2 | %23
 A2 G2 G2 ^F2 | G2 G2 G2 =F2 | E2 D2 F2 E2 | D2 C2 D4 | E4 E2 D2 | C2 C2 D2 F2 | E2 F4 E2 | %30
 F2 F2 F2 E2 | D2 d2 d2 c2 | B2 B2 c4- | c2 B2 A2 A2 | =B2 G2 G2 G2 | ^FGA_B A2 F2 | x2 G2 G2 B2 | %37
 ABcd c2 A2 | x2 B2 B2 d2 | c2 B2 B2 A2 | B2- B2 x4 | x2 c2 A2 c2 | BAGA B2 G2 | x2 A2 F2 B2 | %44
 A3 B G3 A | ^F2 G4 F2 | G3 =F E2 D2 | ^C=B,CD C2 F2 | E3 F D3 E | ^C2 D2 D2 C2 | D8 | %51
 z2 =F3 F F2 | G4 F2 E2- | E2 F2 F2 E2 | F2 x2 x2 A2- | AG F2 E2 E2 | D6 E2 | F2 F2 E4 | F2 FG A4 | %59
 E2 EF G4 | D2 DE F2 G2 | A2 F2 [DE]2 E2 | ^F2 =F2 G2 A2 | D2 G2 G2 ^F2 | G4 x4 | x2 E2 F2 G2 | %66
 C2 F2 F2 E2 | F4 x4 | x2 C2 D2 E2 |[I:staff +1] A,2[I:staff -1] D2 D2 ^C2 | D2 D2 x4 | %71
 x2 D2 =C2 C2 | B,6[I:staff +1] A,2 | =B,2 ^C2 D4 |[I:staff -1] ^C4 D4- | D4 ^C4 | D16 |] %77
V:6
 D4 D2 D2 | D4 D,4 | D4 D2 D2 | D8 | C4 C2 F,2 |[M:4/4] C3 D[I:staff -1] E2 F2 |[I:staff +1] C8 | %7
 C,8 | D,4 D,4 | E,4 F,4 | C,4 C,4 | F,4 z4 | z8 | z8 | z2 F,2 F,2 G,A, | B,2 A,2 G,4 | %16
 A,2 B,4 A,2 |[I:staff -1] B,2 F2 F2 _E2 | D2 F2 _E2 D2 |[I:staff +1] C2 B,2 C2 C2 | %20
 B,2 A,2 G,2 B,2 | F,4 F,4 | G,2 D,2 _E,2 B,2 | C2 C2 D2 D2 | G,2 G,2 G,2 A,=B, | C2 =B,2 A,4 | %26
 =B,2 C4 B,2 | C2 C,2 C,2 D,E, | F,2 E,2 G,2 F,2 | C6 C2 | F,2 F,2 F,2 G,A, | B,2 B,2 B,2 CD | %32
 _E2 D2 C2 E2 | D6 D2 | G,8 | D,8 | G,8 | F,8 | B,6 B,2 | A,2 B,2[I:staff -1] F2 F2 | %40
[I:staff +1] B,4 B,4 | F,8 | G,8 | D6 D2 | D4 D4 | D4 D4 | G,8 | A,8 | A,8 | A,8 | D,8 | %51
 z2 D3 D D2 | G,4 A,2 C2- | C2 F,2 C2 C2 | F,2[I:staff -1] F3 E D2 |[I:staff +1] ^C2 D2 A,2 =C2 | %56
 B,4 B,4 | A,8 | D8 | C8 | B,8 | A,8 | z2 D2 C2 A,2 | B,2 G,2 A,3 A, | G,2 G,4 ^F,2 | %65
 G,2 C2 B,2 G,2 | A,2 F,2 G,3 G, | F,2 F,4 E,2 | F,2 A,2 G,2 E,2 | F,2 D,2 E,3 E, | D,2 D,4 ^C,2 | %71
 D,2 D,2 E,2 ^F,2 | G,6 ^F,2 | E,4 D,4 | A,8 | A,8 | D,16 |] %77

